; generated by Slic3r 1.0.0RC3 on 2014-08-24 at 02:51:51

; layer_height = 0.3
; perimeters = 3
; top_solid_layers = 5
; bottom_solid_layers = 5
; fill_density = 0.21
; perimeter_speed = 30
; infill_speed = 60
; travel_speed = 130
; nozzle_diameter = 0.5
; filament_diameter = 1.75
; extrusion_multiplier = 1
; perimeters extrusion width = 0.18mm
; infill extrusion width = 0.18mm
; solid infill extrusion width = 0.12mm
; top infill extrusion width = 0.15mm
; first layer extrusion width = 0.09mm

G21 ; set units to millimeters
M107
M190 S100 ; wait for bed temperature to be reached
M104 S215 ; set temperature
G28 ; home all axes
G1 Z5 F5000 ; lift nozzle
M109 S215 ; wait for temperature to be reached
G90 ; use absolute coordinates
G92 E0
M82 ; use absolute distances for extrusion
G1 F6000.000 E-7.00000
G1 Z2.300 F7800.000
G92 E0
G1 X28.930 Y5.590 F7800.000
G1 Z0.300 F7800.000
G1 E7.00000 F6000.000
G1 X29.140 Y6.540 E7.02160 F900.000
G1 X29.210 Y7.500 E7.04297
G1 X29.210 Y19.500 E7.30936
G1 X29.080 Y20.810 E7.33858
G1 X28.700 Y22.070 E7.36780
G1 X28.080 Y23.230 E7.39700
G1 X27.250 Y24.250 E7.42619
G1 X24.250 Y27.250 E7.52038
G1 X23.230 Y28.080 E7.54957
G1 X22.070 Y28.700 E7.57877
G1 X20.810 Y29.080 E7.60798
G1 X19.500 Y29.210 E7.63721
G1 X-19.500 Y29.210 E8.50299
G1 X-20.810 Y29.080 E8.53221
G1 X-22.070 Y28.700 E8.56143
G1 X-23.230 Y28.080 E8.59063
G1 X-24.250 Y27.250 E8.61982
G1 X-27.250 Y24.250 E8.71400
G1 X-28.080 Y23.230 E8.74320
G1 X-28.700 Y22.070 E8.77240
G1 X-29.080 Y20.810 E8.80161
G1 X-29.210 Y19.500 E8.83084
G1 X-29.210 Y-22.500 E9.76321
G1 X-29.080 Y-23.810 E9.79244
G1 X-28.700 Y-25.070 E9.82165
G1 X-28.080 Y-26.230 E9.85085
G1 X-27.250 Y-27.250 E9.88005
G1 X-26.230 Y-28.080 E9.90924
G1 X-25.070 Y-28.700 E9.93844
G1 X-23.810 Y-29.080 E9.96765
G1 X-22.500 Y-29.210 E9.99688
G1 X13.600 Y-29.210 E10.79828
G1 X15.020 Y-29.060 E10.82998
G1 X16.380 Y-28.610 E10.86178
G1 X17.610 Y-27.880 E10.89353
G1 X18.660 Y-26.900 E10.92542
G1 X19.480 Y-25.730 E10.95713
G1 X20.030 Y-24.410 E10.98888
G1 X28.922 Y5.564 E11.68296
G1 X28.760 Y5.640 F7800.000
G1 X28.970 Y6.560 E11.70391 F900.000
G1 X29.030 Y7.500 E11.72482
G1 X29.030 Y19.500 E11.99121
G1 X28.910 Y20.770 E12.01953
G1 X28.540 Y22.000 E12.04805
G1 X27.930 Y23.130 E12.07655
G1 X27.120 Y24.120 E12.10495
G1 X24.120 Y27.120 E12.19913
G1 X23.130 Y27.930 E12.22753
G1 X22.000 Y28.540 E12.25604
G1 X20.770 Y28.910 E12.28455
G1 X19.500 Y29.030 E12.31287
G1 X-19.500 Y29.030 E13.17865
G1 X-20.770 Y28.910 E13.20697
G1 X-22.000 Y28.540 E13.23548
G1 X-23.130 Y27.930 E13.26399
G1 X-24.120 Y27.120 E13.29239
G1 X-27.120 Y24.120 E13.38657
G1 X-27.930 Y23.130 E13.41497
G1 X-28.540 Y22.000 E13.44347
G1 X-28.910 Y20.770 E13.47199
G1 X-29.030 Y19.500 E13.50031
G1 X-29.030 Y-22.500 E14.43269
G1 X-28.910 Y-23.770 E14.46100
G1 X-28.540 Y-25.000 E14.48952
G1 X-27.930 Y-26.130 E14.51803
G1 X-27.120 Y-27.120 E14.54642
G1 X-26.130 Y-27.930 E14.57482
G1 X-25.000 Y-28.540 E14.60333
G1 X-23.770 Y-28.910 E14.63184
G1 X-22.500 Y-29.030 E14.66016
G1 X13.600 Y-29.030 E15.46156
G1 X14.990 Y-28.890 E15.49257
G1 X16.310 Y-28.450 E15.52346
G1 X17.510 Y-27.740 E15.55441
G1 X18.530 Y-26.790 E15.58536
G1 X19.330 Y-25.640 E15.61646
G1 X19.860 Y-24.360 E15.64721
G1 X28.752 Y5.614 E16.34129
G1 X28.590 Y5.690 F7800.000
G1 X28.790 Y6.590 E16.36176 F900.000
G1 X28.860 Y7.500 E16.38202
G1 X28.860 Y19.500 E16.64842
G1 X28.730 Y20.740 E16.67609
G1 X28.370 Y21.930 E16.70369
G1 X27.780 Y23.030 E16.73140
G1 X26.990 Y23.990 E16.75900
G1 X23.990 Y26.990 E16.85319
G1 X23.030 Y27.780 E16.88079
G1 X21.930 Y28.370 E16.90850
G1 X20.740 Y28.730 E16.93610
G1 X19.500 Y28.860 E16.96378
G1 X-19.500 Y28.860 E17.82956
G1 X-20.740 Y28.730 E17.85723
G1 X-21.930 Y28.370 E17.88483
G1 X-23.030 Y27.780 E17.91254
G1 X-23.990 Y26.990 E17.94014
G1 X-26.990 Y23.990 E18.03433
G1 X-27.780 Y23.030 E18.06193
G1 X-28.370 Y21.930 E18.08964
G1 X-28.730 Y20.740 E18.11724
G1 X-28.860 Y19.500 E18.14492
G1 X-28.860 Y-22.500 E19.07729
G1 X-28.730 Y-23.740 E19.10497
G1 X-28.370 Y-24.930 E19.13257
G1 X-27.780 Y-26.030 E19.16028
G1 X-26.990 Y-26.990 E19.18788
G1 X-26.030 Y-27.780 E19.21548
G1 X-24.930 Y-28.370 E19.24319
G1 X-23.740 Y-28.730 E19.27079
G1 X-22.500 Y-28.860 E19.29847
G1 X13.600 Y-28.860 E20.09987
G1 X14.950 Y-28.710 E20.13003
G1 X16.230 Y-28.280 E20.16000
G1 X17.400 Y-27.590 E20.19016
G1 X18.400 Y-26.670 E20.22032
G1 X19.170 Y-25.560 E20.25031
G1 X19.690 Y-24.310 E20.28037
G1 X28.582 Y5.664 E20.97445
G1 X28.420 Y5.740 F7800.000
G1 X28.610 Y6.610 E20.99422 F900.000
G1 X28.680 Y7.500 E21.01403
G1 X28.680 Y19.500 E21.28043
G1 X28.470 Y21.100 E21.31625
G1 X27.850 Y22.590 E21.35208
G1 X26.870 Y23.870 E21.38787
G1 X23.870 Y26.870 E21.48205
G1 X22.590 Y27.850 E21.51784
G1 X21.100 Y28.470 E21.55366
G1 X19.500 Y28.680 E21.58949
G1 X-19.500 Y28.680 E22.45527
G1 X-21.100 Y28.470 E22.49109
G1 X-22.590 Y27.850 E22.52692
G1 X-23.870 Y26.870 E22.56271
G1 X-26.870 Y23.870 E22.65689
G1 X-27.850 Y22.590 E22.69268
G1 X-28.470 Y21.100 E22.72850
G1 X-28.680 Y19.500 E22.76433
G1 X-28.680 Y-22.500 E23.69671
G1 X-28.520 Y-23.870 E23.72733
G1 X-28.070 Y-25.180 E23.75808
G1 X-27.330 Y-26.350 E23.78881
G1 X-26.350 Y-27.330 E23.81957
G1 X-25.180 Y-28.070 E23.85031
G1 X-23.870 Y-28.520 E23.88106
G1 X-22.500 Y-28.680 E23.91168
G1 X13.600 Y-28.680 E24.71308
G1 X14.910 Y-28.540 E24.74232
G1 X16.160 Y-28.120 E24.77160
G1 X17.300 Y-27.450 E24.80095
G1 X18.260 Y-26.550 E24.83017
G1 X19.020 Y-25.470 E24.85948
G1 X19.520 Y-24.260 E24.88855
G1 X28.412 Y5.714 E25.58263
G1 X28.610 Y6.610 F6240.000 E24.74486
G1 X28.680 Y7.500 F6240.000 E23.92937
G1 X28.680 Y12.970 F6240.000 E18.93263
G1 F6000.000 E18.58263
G1 Z2.300 F7800.000
G92 E0
G1 X24.369 Y6.726 F7800.000
G1 Z0.300 F7800.000
G1 E7.00000 F6000.000
G1 X24.369 Y19.872 E7.29183 F900.000
G1 X24.084 Y20.559 E7.30834
G1 X20.559 Y24.084 E7.41903
G1 X19.872 Y24.369 E7.43553
G1 X-19.872 Y24.369 E8.31781
G1 X-20.559 Y24.084 E8.33432
G1 X-24.084 Y20.559 E8.44501
G1 X-24.369 Y19.872 E8.46151
G1 X-24.369 Y-23.274 E9.41933
G1 X-23.274 Y-24.369 E9.45370
G1 X3.274 Y-24.369 E10.04306
G1 X4.369 Y-23.274 E10.07743
G1 X4.369 Y-14.430 E10.27377
G1 X4.578 Y-14.335 E10.27887
G1 X5.699 Y-15.319 E10.31199
G1 X5.731 Y-15.389 E10.31369
G1 X5.731 Y-23.274 E10.48874
G1 X6.826 Y-24.369 E10.52311
G1 X14.374 Y-24.369 E10.69068
G1 X15.469 Y-23.274 E10.72505
G1 X15.469 Y-15.389 E10.90010
G1 X15.501 Y-15.319 E10.90181
G1 X17.136 Y-13.884 E10.95010
G1 X17.469 Y-13.149 E10.96802
G1 X17.469 Y-1.726 E11.22160
G1 X16.374 Y-0.631 E11.25597
G1 X4.826 Y-0.631 E11.51233
G1 X4.589 Y-0.868 E11.51978
G1 X4.369 Y-0.777 E11.52506
G1 X4.369 Y10.527 E11.77601
G1 X4.473 Y10.631 E11.77929
G1 X16.286 Y10.631 E12.04152
G1 X16.372 Y10.578 E12.04376
G1 X18.566 Y6.189 E12.15269
G1 X19.469 Y5.631 E12.17626
G1 X23.274 Y5.631 E12.26073
G1 X24.350 Y6.707 E12.29450
G1 X24.191 Y6.800 F7800.000
G1 X24.191 Y19.836 E12.58391 F900.000
G1 X23.933 Y20.458 E12.59884
G1 X20.458 Y23.933 E12.70796
G1 X19.836 Y24.191 E12.72290
G1 X-19.836 Y24.191 E13.60361
G1 X-20.458 Y23.933 E13.61854
G1 X-23.933 Y20.458 E13.72766
G1 X-24.191 Y19.836 E13.74259
G1 X-24.191 Y-23.200 E14.69798
G1 X-23.200 Y-24.191 E14.72908
G1 X3.200 Y-24.191 E15.31516
G1 X4.191 Y-23.200 E15.34626
G1 X4.191 Y-14.037 E15.54969
G1 X4.400 Y-13.942 E15.55479
G1 X5.877 Y-15.238 E15.59842
G1 X5.909 Y-15.308 E15.60013
G1 X5.909 Y-23.200 E15.77533
G1 X6.900 Y-24.191 E15.80643
G1 X14.300 Y-24.191 E15.97072
G1 X15.291 Y-23.200 E16.00182
G1 X15.291 Y-15.308 E16.17702
G1 X15.323 Y-15.238 E16.17873
G1 X16.990 Y-13.776 E16.22796
G1 X17.291 Y-13.110 E16.24417
G1 X17.291 Y-1.800 E16.49526
G1 X16.300 Y-0.809 E16.52636
G1 X4.900 Y-0.809 E16.77945
G1 X4.411 Y-1.298 E16.79480
G1 X4.191 Y-1.207 E16.80008
G1 X4.191 Y10.705 E17.06452
G1 X4.295 Y10.809 E17.06779
G1 X16.396 Y10.809 E17.33642
G1 X16.482 Y10.756 E17.33866
G1 X18.702 Y6.314 E17.44891
G1 X19.520 Y5.809 E17.47023
G1 X23.200 Y5.809 E17.55194
G1 X24.172 Y6.781 E17.58245
G1 X24.013 Y6.873 F7800.000
G1 X24.013 Y19.801 E17.86943 F900.000
G1 X23.783 Y20.357 E17.88279
G1 X20.357 Y23.783 E17.99034
G1 X19.801 Y24.013 E18.00370
G1 X-19.801 Y24.013 E18.88284
G1 X-20.357 Y23.783 E18.89620
G1 X-23.783 Y20.357 E19.00375
G1 X-24.013 Y19.801 E19.01711
G1 X-24.013 Y-23.127 E19.97008
G1 X-23.127 Y-24.013 E19.99790
G1 X3.127 Y-24.013 E20.58071
G1 X4.013 Y-23.127 E20.60853
G1 X4.013 Y-13.589 E20.82027
G1 X4.294 Y-13.528 E20.82665
G1 X4.357 Y-13.667 E20.83004
G1 X6.055 Y-15.157 E20.88020
G1 X6.087 Y-15.227 E20.88191
G1 X6.087 Y-23.127 E21.05727
G1 X6.973 Y-24.013 E21.08509
G1 X14.227 Y-24.013 E21.24611
G1 X15.113 Y-23.127 E21.27393
G1 X15.113 Y-15.227 E21.44929
G1 X15.145 Y-15.157 E21.45100
G1 X16.843 Y-13.667 E21.50116
G1 X17.113 Y-13.072 E21.51567
G1 X17.113 Y-1.873 E21.76427
G1 X16.227 Y-0.987 E21.79209
G1 X4.973 Y-0.987 E22.04191
G1 X4.233 Y-1.728 E22.06517
G1 X4.013 Y-1.637 E22.07045
G1 X4.013 Y10.883 E22.34838
G1 X4.117 Y10.987 E22.35165
G1 X16.506 Y10.987 E22.62667
G1 X16.592 Y10.934 E22.62891
G1 X18.839 Y6.439 E22.74047
G1 X19.570 Y5.987 E22.75956
G1 X23.127 Y5.987 E22.83851
G1 X23.994 Y6.854 E22.86574
G1 X24.005 Y14.134 F6240.000 E16.21574
G1 F6000.000 E15.86574
G1 Z2.300 F7800.000
G92 E0
G1 X16.153 Y-1.165 F7800.000
G1 Z0.300 F7800.000
G1 E7.00000 F6000.000
G1 X5.047 Y-1.165 E7.24654 F900.000
G1 X4.265 Y-1.947 E7.27109
G1 X4.265 Y-13.034 E7.51721
G1 X4.503 Y-13.559 E7.53001
G1 X6.233 Y-15.077 E7.58111
G1 X6.265 Y-15.147 E7.58282
G1 X6.265 Y-23.053 E7.75833
G1 X7.047 Y-23.835 E7.78288
G1 X14.153 Y-23.835 E7.94062
G1 X14.935 Y-23.053 E7.96517
G1 X14.935 Y-15.147 E8.14068
G1 X14.967 Y-15.077 E8.14239
G1 X16.697 Y-13.559 E8.19349
G1 X16.935 Y-13.034 E8.20629
G1 X16.935 Y-1.947 E8.45240
G1 X16.172 Y-1.184 E8.47636
G1 X16.079 Y-1.343 F7800.000
G1 X5.121 Y-1.343 E8.71963 F900.000
G1 X4.443 Y-2.021 E8.74091
G1 X4.443 Y-12.995 E8.98453
G1 X4.649 Y-13.450 E8.99563
G1 X6.411 Y-14.996 E9.04767
G1 X6.443 Y-15.066 E9.04937
G1 X6.443 Y-22.979 E9.22504
G1 X7.121 Y-23.657 E9.24631
G1 X14.079 Y-23.657 E9.40079
G1 X14.757 Y-22.979 E9.42206
G1 X14.757 Y-15.066 E9.59773
G1 X14.789 Y-14.996 E9.59943
G1 X16.551 Y-13.450 E9.65147
G1 X16.757 Y-12.995 E9.66256
G1 X16.757 Y-2.021 E9.90619
G1 X16.098 Y-1.362 E9.92687
G1 X16.005 Y-1.521 F7800.000
G1 X5.195 Y-1.521 E10.16687 F900.000
G1 X4.621 Y-2.095 E10.18487
G1 X4.621 Y-12.957 E10.42601
G1 X4.796 Y-13.342 E10.43539
G1 X6.589 Y-14.916 E10.48837
G1 X6.621 Y-14.986 E10.49008
G1 X6.621 Y-22.905 E10.66589
G1 X7.195 Y-23.479 E10.68390
G1 X14.005 Y-23.479 E10.83510
G1 X14.579 Y-22.905 E10.85310
G1 X14.579 Y-14.986 E11.02892
G1 X14.611 Y-14.916 E11.03062
G1 X16.404 Y-13.342 E11.08360
G1 X16.579 Y-12.957 E11.09298
G1 X16.579 Y-2.095 E11.33412
G1 X16.024 Y-1.540 E11.35153
G1 X15.932 Y-1.699 F7800.000
G1 X5.268 Y-1.699 E11.58825 F900.000
G1 X4.799 Y-2.168 E11.60298
G1 X4.799 Y-12.918 E11.84163
G1 X4.942 Y-13.233 E11.84931
G1 X6.767 Y-14.835 E11.90322
G1 X6.799 Y-14.905 E11.90493
G1 X6.799 Y-22.832 E12.08090
G1 X7.268 Y-23.301 E12.09563
G1 X13.932 Y-23.301 E12.24355
G1 X14.401 Y-22.832 E12.25828
G1 X14.401 Y-14.905 E12.43425
G1 X14.433 Y-14.835 E12.43596
G1 X16.258 Y-13.233 E12.48987
G1 X16.401 Y-12.918 E12.49755
G1 X16.401 Y-2.168 E12.73620
G1 X15.951 Y-1.718 E12.75033
G1 X15.858 Y-1.877 F7800.000
G1 X5.342 Y-1.877 E12.98378 F900.000
G1 X4.977 Y-2.242 E12.99524
G1 X4.977 Y-12.880 E13.23140
G1 X5.088 Y-13.125 E13.23737
G1 X6.945 Y-14.754 E13.29222
G1 X6.977 Y-14.824 E13.29392
G1 X6.977 Y-22.758 E13.47005
G1 X7.342 Y-23.123 E13.48150
G1 X13.858 Y-23.123 E13.62616
G1 X14.223 Y-22.758 E13.63761
G1 X14.223 Y-14.824 E13.81374
G1 X14.255 Y-14.754 E13.81544
G1 X16.112 Y-13.125 E13.87029
G1 X16.223 Y-12.880 E13.87627
G1 X16.223 Y-2.242 E14.11242
G1 X15.877 Y-1.896 E14.12328
G1 X15.784 Y-2.055 F7800.000
G1 X5.416 Y-2.055 E14.35346 F900.000
G1 X5.155 Y-2.316 E14.36165
G1 X5.155 Y-12.841 E14.59531
G1 X5.234 Y-13.016 E14.59958
G1 X7.123 Y-14.674 E14.65536
G1 X7.155 Y-14.744 E14.65707
G1 X7.155 Y-22.684 E14.83335
G1 X7.416 Y-22.945 E14.84153
G1 X13.784 Y-22.945 E14.98291
G1 X14.045 Y-22.684 E14.99109
G1 X14.045 Y-14.744 E15.16737
G1 X14.077 Y-14.674 E15.16908
G1 X15.966 Y-13.016 E15.22486
G1 X16.045 Y-12.841 E15.22913
G1 X16.045 Y-2.316 E15.46279
G1 X15.803 Y-2.074 E15.47038
G1 X15.711 Y-2.233 F7800.000
G1 X5.489 Y-2.233 E15.69729 F900.000
G1 X5.333 Y-2.389 E15.70220
G1 X5.333 Y-12.803 E15.93337
G1 X5.381 Y-12.908 E15.93593
G1 X7.301 Y-14.593 E15.99266
G1 X7.333 Y-14.663 E15.99436
G1 X7.333 Y-22.611 E16.17079
G1 X7.489 Y-22.767 E16.17570
G1 X13.711 Y-22.767 E16.31381
G1 X13.867 Y-22.611 E16.31872
G1 X13.867 Y-14.663 E16.49515
G1 X13.899 Y-14.593 E16.49685
G1 X15.819 Y-12.908 E16.55358
G1 X15.867 Y-12.803 E16.55614
G1 X15.867 Y-2.389 E16.78731
G1 X15.729 Y-2.252 E16.79163
G1 X15.637 Y-2.411 F7800.000
G1 X5.563 Y-2.411 E17.01526 F900.000
G1 X5.511 Y-2.463 E17.01690
G1 X5.511 Y-12.765 E17.24558
G1 X5.527 Y-12.800 E17.24644
G1 X7.479 Y-14.512 E17.30410
G1 X7.511 Y-14.583 E17.30580
G1 X7.511 Y-22.537 E17.48239
G1 X7.563 Y-22.589 E17.48402
G1 X13.637 Y-22.589 E17.61886
G1 X13.689 Y-22.537 E17.62049
G1 X13.689 Y-14.583 E17.79708
G1 X13.721 Y-14.512 E17.79878
G1 X15.673 Y-12.800 E17.85644
G1 X15.689 Y-12.765 E17.85729
G1 X15.689 Y-2.463 E18.08598
G1 X15.656 Y-2.430 E18.08702
G1 X8.376 Y-2.416 F6240.000 E11.43702
G1 F6000.000 E11.08702
G1 Z2.300 F7800.000
G92 E0
G1 X19.621 Y6.165 F7800.000
G1 Z0.300 F7800.000
G1 E7.00000 F6000.000
G1 X23.053 Y6.165 E7.07619 F900.000
G1 X23.835 Y6.947 E7.10074
G1 X23.835 Y19.766 E7.38530
G1 X23.632 Y20.256 E7.39709
G1 X20.256 Y23.632 E7.50307
G1 X19.766 Y23.835 E7.51486
G1 X-19.766 Y23.835 E8.39243
G1 X-20.256 Y23.632 E8.40422
G1 X-23.632 Y20.256 E8.51019
G1 X-23.835 Y19.766 E8.52198
G1 X-23.835 Y-23.053 E9.47253
G1 X-23.053 Y-23.835 E9.49708
G1 X3.053 Y-23.835 E10.07661
G1 X3.835 Y-23.053 E10.10116
G1 X3.835 Y11.061 E10.85847
G1 X3.939 Y11.165 E10.86174
G1 X16.616 Y11.165 E11.14315
G1 X16.702 Y11.112 E11.14540
G1 X18.976 Y6.564 E11.25828
G1 X19.598 Y6.179 E11.27453
G1 X19.671 Y6.343 F7800.000
G1 X22.979 Y6.343 E11.34796 F900.000
G1 X23.657 Y7.021 E11.36923
G1 X23.657 Y19.730 E11.65138
G1 X23.481 Y20.155 E11.66159
G1 X20.155 Y23.481 E11.76599
G1 X19.730 Y23.657 E11.77621
G1 X-19.730 Y23.657 E12.65221
G1 X-20.155 Y23.481 E12.66243
G1 X-23.481 Y20.155 E12.76683
G1 X-23.657 Y19.730 E12.77705
G1 X-23.657 Y-22.979 E13.72517
G1 X-22.979 Y-23.657 E13.74645
G1 X2.979 Y-23.657 E14.32271
G1 X3.657 Y-22.979 E14.34399
G1 X3.657 Y11.239 E15.10361
G1 X3.761 Y11.343 E15.10688
G1 X16.726 Y11.343 E15.39469
G1 X16.812 Y11.290 E15.39693
G1 X19.112 Y6.689 E15.51113
G1 X19.649 Y6.357 E15.52513
G1 X19.722 Y6.521 F7800.000
G1 X22.905 Y6.521 E15.59581 F900.000
G1 X23.479 Y7.095 E15.61381
G1 X23.479 Y19.695 E15.89353
G1 X23.330 Y20.055 E15.90217
G1 X20.055 Y23.330 E16.00500
G1 X19.695 Y23.479 E16.01365
G1 X-19.695 Y23.479 E16.88807
G1 X-20.055 Y23.330 E16.89672
G1 X-23.330 Y20.055 E16.99955
G1 X-23.479 Y19.695 E17.00819
G1 X-23.479 Y-22.905 E17.95390
G1 X-22.905 Y-23.479 E17.97190
G1 X2.905 Y-23.479 E18.54489
G1 X3.479 Y-22.905 E18.56289
G1 X3.479 Y11.417 E19.32483
G1 X3.583 Y11.521 E19.32810
G1 X16.836 Y11.521 E19.62230
G1 X16.922 Y11.468 E19.62454
G1 X19.249 Y6.813 E19.74007
G1 X19.699 Y6.535 E19.75182
G1 X19.772 Y6.699 F7800.000
G1 X22.832 Y6.699 E19.81974 F900.000
G1 X23.301 Y7.168 E19.83446
G1 X23.301 Y19.659 E20.11176
G1 X23.179 Y19.954 E20.11883
G1 X19.954 Y23.179 E20.22009
G1 X19.659 Y23.301 E20.22717
G1 X-19.659 Y23.301 E21.10002
G1 X-19.954 Y23.179 E21.10709
G1 X-23.179 Y19.954 E21.20835
G1 X-23.301 Y19.659 E21.21542
G1 X-23.301 Y-22.832 E22.15870
G1 X-22.832 Y-23.301 E22.17343
G1 X2.832 Y-23.301 E22.74315
G1 X3.301 Y-22.832 E22.75788
G1 X3.301 Y11.595 E23.52213
G1 X3.405 Y11.699 E23.52541
G1 X16.946 Y11.699 E23.82599
G1 X17.032 Y11.646 E23.82824
G1 X19.385 Y6.938 E23.94508
G1 X19.750 Y6.713 E23.95459
G1 X19.823 Y6.877 F7800.000
G1 X22.758 Y6.877 E24.01975 F900.000
G1 X23.123 Y7.242 E24.03120
G1 X23.123 Y19.624 E24.30608
G1 X23.028 Y19.853 E24.31158
G1 X19.853 Y23.028 E24.41126
